app/public/images/commit.svg

<svg xmlns="http://www.w3.org/2000/svg" viewBox="-25 -20 140 140"><path fill="#FFF" d="M20 40c3.7 0 6.9-2 8.7-5h11.3c4 0 4.9 2.8 5 5v1.8h-5.5l10.5 18.2 10.5-18.2h-5.5v-1.8c0-6-4-15-15-15h-11.3c-1.7-3-5-5-8.7-5-5.5 0-10 4.5-10 10s4.5 10 10 10zm0-16c3.3 0 6 2.7 6 6s-2.7 6-6 6-6-2.7-6-6 2.7-6 6-6zm60 36c-3.7 0-6.9 2-8.7 5h-42.6c-1.7-3-5-5-8.7-5-5.5 0-10 4.5-10 10s4.5 10 10 10c3.7 0 6.9-2 8.7-5h42.7c1.7 3 5 5 8.7 5 5.5 0 10-4.5 10-10-.1-5.5-4.6-10-10.1-10zm-60 16c-3.3 0-6-2.7-6-6s2.7-6 6-6 6 2.7 6 6-2.7 6-6 6zm60 0c-3.3 0-6-2.7-6-6s2.7-6 6-6 6 2.7 6 6-2.7 6-6 6z"/></svg>

<svg xmlns="http://www.w3.org/2000/svg" xmlns:xlink="http://www.w3.org/1999/xlink" viewBox="-25 -20 140 140" xml:space="preserve"><path fill='#FFF' d="M20,40c3.7,0,6.9-2,8.7-5H40c4,0,4.9,2.8,5,5v1.8h-5.5L50,60l10.5-18.2H55V40c0-6-4-15-15-15  H28.7c-1.7-3-5-5-8.7-5c-5.5,0-10,4.5-10,10C10,35.5,14.5,40,20,40z M20,24c3.3,0,6,2.7,6,6s-2.7,6-6,6s-6-2.7-6-6S16.7,24,20,24z   M80,60c-3.7,0-6.9,2-8.7,5H28.7c-1.7-3-5-5-8.7-5c-5.5,0-10,4.5-10,10c0,5.5,4.5,10,10,10c3.7,0,6.9-2,8.7-5h42.7c1.7,3,5,5,8.7,5  c5.5,0,10-4.5,10-10C90,64.5,85.5,60,80,60z M20,76c-3.3,0-6-2.7-6-6s2.7-6,6-6s6,2.7,6,6S23.3,76,20,76z M80,76c-3.3,0-6-2.7-6-6  s2.7-6,6-6s6,2.7,6,6S83.3,76,80,76z"/></svg>
